source/img/vk.svg

<svg width="29" height="18" viewBox="0 0 29 18" fill="none" xmlns="http://www.w3.org/2000/svg">
<path d="M28.3751 15.6441C28.3462 15.5805 28.3139 15.5186 28.2784 15.4584C27.5004 14.2331 26.546 13.129 25.446 12.1819L25.4169 12.1517L25.4016 12.1373L25.3866 12.1223H25.3723C24.7396 11.519 24.3392 11.1138 24.1709 10.9066C23.8757 10.5797 23.7948 10.1122 23.9629 9.70513C24.3383 9.01243 24.7857 8.36128 25.2977 7.76249C25.7029 7.23899 26.024 6.81894 26.2609 6.50234C27.9718 4.22822 28.7133 2.77493 28.4855 2.14246L28.3975 1.99482C28.273 1.86818 28.1127 1.78288 27.9381 1.75048C27.6277 1.67261 27.3046 1.65991 26.989 1.71317L22.7178 1.74252C22.6203 1.71824 22.5179 1.72101 22.4218 1.75052C22.2931 1.77987 22.2282 1.79489 22.2282 1.79489L22.1545 1.83242L22.0958 1.87679C22.0326 1.91856 21.9772 1.97116 21.9322 2.03217C21.8706 2.111 21.821 2.19846 21.7848 2.29175C21.3414 3.44254 20.8107 4.55782 20.1975 5.62786C19.8315 6.24098 19.4953 6.77243 19.189 7.2222C18.9595 7.57372 18.7018 7.90598 18.4185 8.21571C18.243 8.39924 18.0547 8.57001 17.8549 8.72671C17.6861 8.85571 17.5583 8.90985 17.4693 8.89029C17.3803 8.86981 17.296 8.85029 17.217 8.83068C17.0766 8.74017 16.9618 8.61505 16.8837 8.46736C16.791 8.28695 16.7331 8.09068 16.7131 7.88882C16.6838 7.65676 16.6662 7.45678 16.6605 7.28889C16.6562 7.12099 16.6587 6.88279 16.6685 6.57703C16.6783 6.27036 16.6838 6.06242 16.6838 5.95413C16.6838 5.57806 16.6909 5.17015 16.7052 4.73039C16.7202 4.29039 16.7326 3.942 16.7425 3.68523C16.7523 3.42846 16.7573 3.15652 16.7575 2.86941C16.7624 2.64338 16.7449 2.41743 16.7051 2.19486C16.6708 2.03146 16.6186 1.87232 16.5495 1.72029C16.4861 1.57406 16.3802 1.45025 16.2456 1.36493C16.0919 1.27226 15.9245 1.20447 15.7496 1.16405C15.0905 1.03223 14.4198 0.967586 13.7476 0.971119C12.5543 0.870971 11.3528 0.991827 10.2034 1.32762C9.99021 1.44035 9.79934 1.5909 9.64007 1.77193C9.46238 1.98966 9.4375 2.10842 9.56544 2.1282C10.0544 2.16231 10.509 2.39203 10.8265 2.76544L10.9152 2.94403C11.0131 3.16145 11.0828 3.39052 11.1225 3.62564C11.1955 3.98234 11.24 4.34431 11.2556 4.70809C11.3057 5.32504 11.3057 5.94505 11.2556 6.56201C11.2069 7.07549 11.1601 7.47567 11.1152 7.76256C11.0842 8.00385 11.0168 8.23903 10.9152 8.46008C10.8629 8.57264 10.8032 8.68163 10.7366 8.78632C10.7174 8.81572 10.6923 8.84082 10.6629 8.86003C10.5351 8.90966 10.3991 8.93497 10.262 8.93465C10.0772 8.91657 9.90189 8.84422 9.75811 8.72671C9.53127 8.56117 9.32485 8.36934 9.14317 8.15522C8.87594 7.83689 8.6352 7.49723 8.42335 7.13965C8.15671 6.70489 7.88007 6.19089 7.59341 5.59765L7.35612 5.16765C7.20757 4.89123 7.00494 4.48832 6.74824 3.95893C6.49138 3.43021 6.26418 2.91863 6.06664 2.42419C5.99944 2.2331 5.87495 2.06738 5.71015 1.94962L5.63643 1.90525C5.56297 1.85332 5.48324 1.8109 5.39914 1.77899C5.28935 1.73429 5.17488 1.70209 5.05789 1.68299L0.994886 1.71234C0.68509 1.67382 0.374477 1.77733 0.149716 1.99399L0.0901056 2.08294C0.055565 2.15703 0.0403093 2.23865 0.0457556 2.32022C0.0516697 2.45803 0.081796 2.59372 0.134756 2.72109C0.728316 4.11455 1.37344 5.45879 2.07013 6.75381C2.76697 8.04967 3.3722 9.0927 3.88583 9.8829C4.40043 10.6739 4.92443 11.4201 5.45783 12.1215C5.99201 12.8236 6.34539 13.2736 6.51799 13.4715C6.69136 13.6697 6.82739 13.8171 6.92591 13.9158L7.29651 14.2721C7.62262 14.5828 7.97236 14.8678 8.34257 15.1243C8.83453 15.4765 9.34412 15.8034 9.86935 16.1037C10.4836 16.4472 11.1391 16.7112 11.82 16.8893C12.5235 17.0879 13.2548 17.1705 13.9849 17.1336H15.6902C15.9836 17.1266 16.2637 17.0103 16.4758 16.8076L16.5345 16.7339C16.5852 16.6485 16.6227 16.5558 16.6455 16.4591C16.6815 16.3262 16.6991 16.1891 16.6978 16.0514C16.6847 15.6659 16.7169 15.2803 16.7938 14.9023C16.8429 14.6352 16.9278 14.376 17.0464 14.1318C17.1308 13.9712 17.2383 13.8239 17.3654 13.6945C17.4396 13.612 17.5245 13.5398 17.6177 13.4795C17.6559 13.4594 17.6954 13.4419 17.736 13.4269C18.0361 13.3629 18.3486 13.4487 18.5739 13.6572C18.9105 13.9047 19.2145 14.1937 19.4786 14.5174C19.7603 14.8586 20.0986 15.2417 20.4935 15.6665C20.8071 16.0166 21.1548 16.3345 21.5314 16.6156L21.8283 16.7933C22.0718 16.9318 22.3307 17.0413 22.5998 17.1196C22.8655 17.215 23.1512 17.2407 23.4297 17.1942L27.2263 17.1346C27.529 17.151 27.8306 17.0869 28.1006 16.9489C28.2722 16.8664 28.4051 16.7205 28.4712 16.5419C28.5112 16.3763 28.5139 16.2039 28.4792 16.0371C28.4585 15.9028 28.4236 15.7711 28.3752 15.6442L28.3751 15.6441Z" fill="white"/>
</svg>

<svg width="29" height="18" fill="none" xmlns="http://www.w3.org/2000/svg"><path d="M28.375 15.644a1.97 1.97 0 00-.097-.186 14.773 14.773 0 00-2.832-3.276l-.03-.03-.014-.015-.015-.015h-.015c-.632-.603-1.033-1.008-1.201-1.215a1.142 1.142 0 01-.208-1.202 11.18 11.18 0 011.335-1.943c.405-.523.726-.943.963-1.26 1.71-2.274 2.452-3.727 2.224-4.36l-.087-.147a.866.866 0 00-.46-.245 2.316 2.316 0 00-.949-.037l-4.271.03a.553.553 0 00-.296.008l-.194.044-.074.037-.058.045a.646.646 0 00-.164.155 1.022 1.022 0 00-.147.26 24.233 24.233 0 01-1.587 3.336 32.036 32.036 0 01-1.009 1.594c-.23.352-.487.684-.77.994a5.336 5.336 0 01-.564.51c-.169.13-.297.184-.386.164a15.41 15.41 0 01-.252-.06.974.974 0 01-.333-.363 1.614 1.614 0 01-.17-.578 6.71 6.71 0 01-.053-.6c-.005-.168-.002-.406.008-.712.01-.307.015-.515.015-.623 0-.376.007-.784.021-1.224l.038-1.045c.01-.257.014-.528.015-.816a3.412 3.412 0 00-.053-.674 2.278 2.278 0 00-.155-.475.795.795 0 00-.304-.355 1.703 1.703 0 00-.496-.2A9.941 9.941 0 0013.748.97a9.735 9.735 0 00-3.545.357 1.988 1.988 0 00-.563.444c-.178.218-.203.336-.075.356.49.034.944.264 1.261.637l.09.179c.097.217.167.447.207.682.072.356.117.718.133 1.082.05.617.05 1.237 0 1.854-.05.513-.096.914-.14 1.2a2.404 2.404 0 01-.2.698 2.828 2.828 0 01-.18.326.254.254 0 01-.073.074 1.1 1.1 0 01-.401.075.941.941 0 01-.504-.208 3.554 3.554 0 01-.615-.572 7.622 7.622 0 01-.72-1.015 17.722 17.722 0 01-.83-1.542l-.237-.43c-.148-.277-.351-.68-.608-1.21a23.318 23.318 0 01-.681-1.534.985.985 0 00-.357-.474l-.074-.045A1.066 1.066 0 005.4 1.78a1.58 1.58 0 00-.341-.096l-4.063.03c-.31-.04-.62.064-.845.281l-.06.089a.485.485 0 00-.044.237c.006.138.036.274.089.401A49.219 49.219 0 002.07 6.754c.697 1.296 1.302 2.339 1.816 3.129a37.296 37.296 0 001.572 2.239 33.32 33.32 0 001.06 1.35c.173.198.31.345.408.444l.37.356c.327.31.676.596 1.047.852.492.352 1.001.68 1.526.98a8.3 8.3 0 001.951.785 6.72 6.72 0 002.165.245h1.705a1.18 1.18 0 00.786-.326l.059-.074a.978.978 0 00.11-.275 1.48 1.48 0 00.053-.408 4.93 4.93 0 01.096-1.149c.049-.267.134-.526.252-.77a1.88 1.88 0 01.32-.438c.074-.082.159-.154.252-.215a.993.993 0 01.118-.052c.3-.064.613.022.838.23.336.248.64.537.905.86.281.342.62.725 1.015 1.15.313.35.66.667 1.037.949l.297.177c.244.139.503.248.772.327.265.095.551.12.83.074l3.796-.06c.303.017.605-.047.875-.185a.734.734 0 00.37-.407c.04-.166.043-.338.008-.505a1.926 1.926 0 00-.104-.393z" fill="#fff"/></svg>
